symbols/web/device_unknown/materialsymbolssharp/device_unknown_wght300gradN25_20px.svg

<svg xmlns="http://www.w3.org/2000/svg" height="20" width="20"><path d="M10.021 13.896q-.313 0-.511-.188-.198-.187-.198-.52 0-.313.198-.5.198-.188.511-.188.312 0 .5.188.187.187.187.5 0 .333-.187.52-.188.188-.5.188Zm-.5-2.417q0-.729.187-1.125.188-.396.771-1 .354-.312.542-.573.187-.26.187-.635 0-.396-.291-.719-.292-.323-.917-.323-.5 0-.792.271-.291.271-.437.667l-.917-.354q.25-.667.792-1.115.542-.448 1.375-.448.896 0 1.541.51.646.511.646 1.469 0 .521-.187.865-.188.343-.563.719-.583.583-.76.958-.177.375-.198.833Zm-4.813 7.104V1.417h10.584v17.166Zm1.25-3.625h8.084V5.042H5.958Zm0 2.375h8.084v-1.125H5.958Zm0-13.541h8.084V2.667H5.958Zm0 0V2.667v1.125Zm0 13.541v-1.125 1.125Z"/></svg>

<svg xmlns="http://www.w3.org/2000/svg" height="20" width="20"><path d="M10.021 13.896Q9.708 13.896 9.51 13.708Q9.312 13.521 9.312 13.188Q9.312 12.875 9.51 12.688Q9.708 12.5 10.021 12.5Q10.333 12.5 10.521 12.688Q10.708 12.875 10.708 13.188Q10.708 13.521 10.521 13.708Q10.333 13.896 10.021 13.896ZM9.521 11.479Q9.521 10.75 9.708 10.354Q9.896 9.958 10.479 9.354Q10.833 9.042 11.021 8.781Q11.208 8.521 11.208 8.146Q11.208 7.75 10.917 7.427Q10.625 7.104 10 7.104Q9.5 7.104 9.208 7.375Q8.917 7.646 8.771 8.042L7.854 7.688Q8.104 7.021 8.646 6.573Q9.188 6.125 10.021 6.125Q10.917 6.125 11.562 6.635Q12.208 7.146 12.208 8.104Q12.208 8.625 12.021 8.969Q11.833 9.312 11.458 9.688Q10.875 10.271 10.698 10.646Q10.521 11.021 10.5 11.479ZM4.708 18.583V1.417H15.292V18.583ZM5.958 14.958H14.042V5.042H5.958ZM5.958 17.333H14.042V16.208H5.958ZM5.958 3.792H14.042V2.667H5.958ZM5.958 3.792V2.667V3.792ZM5.958 17.333V16.208V17.333Z"/></svg>
